X: 271
M: 3/4
L: 1/8
K: G
"1."[|\
agfed>c | TB6 |\
d4 (3(gfe) | d6 "2d"|]|\
[|\
{e2}d4 (3(cdc) | TB4 e2 |\
d^cde d2 | gfe d3 "4th"|]|\
d^cde d2 | G2 BA B2 "5th"|[|\
cAeGFE | D3 cBA |\
(3(BAG) HG6 "6th"|]|\
(3(ABc) HTB4 | e2 dcBA |\
(3(ABc) HB4 |\
ef g3 e | d4 (3(cBA) |\
{d2}HT^c4 (3(cde) | d4 (3(cBA) |\
"8th"[|\
(3(cBA) (3(BAG) G2 | fg {g}Hf3 e |\
d3 ed^c | Hd2 G2 B2 |\
cBA G3 |]

